X: 154
T:Annie Laurie
M:4/4
L:1/4
K:C
"C"C C/2C/2 "Am"c>c|"F"B A z A|"C"G E E D/2C/2|"G"D2-D E/2D/2|!
"C"C>C "Am"c>c|"F"B A z A|"C"G E E>"G"D|"C"C2 z G||!
"C"c>c "G"d>d|"C"e2 z G|"C"c>c "G"d>d|"E"e2 e d|!
"F"c>B A c/2A/2|"C"G E-E>D|"C"C/2 c E/2 "F"E>"G"D|"C"C3 z:|| C||
% <A name="D1X155">
